assets/images/chatbot.svg

<svg id="eovZ3xaYeGP1"
    xmlns="http://www.w3.org/2000/svg"
    xmlns:xlink="http://www.w3.org/1999/xlink" viewBox="0 0 32 32" shape-rendering="geometricPrecision" text-rendering="geometricPrecision" project-id="484174f06a324f7ab0bb493061b265ac" export-id="6b274d2895e94376902809dba20cefb9" cached="false" width="32" height="32">
    <g transform="matrix(.32-.000119 0.000119 0.32-682.055451-373.500286)">
        <path d="M2150.14,1196.5h61.72c8.09,0,14.64,11.86,14.64,26.5s-6.55,26.5-14.64,26.5h-61.72c-8.09,0-14.64-11.86-14.64-26.5s6.55-26.5,14.64-26.5Z" fill="white" fill-rule="evenodd" stroke="black" stroke-width="6.875" stroke-miterlimit="8"/>
        <path d="M2150,1224c0-4.42,3.58-8,8-8s8,3.58,8,8-3.58,8-8,8-8-3.58-8-8Z" fill-rule="evenodd"/>
        <path d="M2195,1224c0-4.42,3.58-8,8-8s8,3.58,8,8-3.58,8-8,8-8-3.58-8-8Z" fill-rule="evenodd"/>
        <path d="M2187.89,1223.7c.72,4.35-2.23,8.47-6.59,9.19-4.35.72-8.47-2.23-9.19-6.59-.15-.87-.15-1.76,0-2.63l15.78.03Z" fill-rule="evenodd"/>
        <path d="M2171,1182.5c0-5.25,4.25-9.5,9.5-9.5s9.5,4.25,9.5,9.5-4.25,9.5-9.5,9.5-9.5-4.25-9.5-9.5Z" fill="#d1d1d1" fill-rule="evenodd"/>
        <path d="M2180.5,1183.5v12.92" fill="white" fill-rule="evenodd" stroke="black" stroke-width="6.875" stroke-miterlimit="8"/>
        <path d="M2175,1183c0-2.76,2.24-5,5-5s5,2.24,5,5-2.24,5-5,5-5-2.24-5-5Z" fill-rule="evenodd"/>
        <path d="M0,15.9998L0,0L16.0002,15.9998h-16.0002Z" transform="matrix(1 0 0-1 2156 1263)" fill-rule="evenodd"/>
    </g>
</svg>

<svg width="98" height="90" xmlns="http://www.w3.org/2000/svg" xmlns:xlink="http://www.w3.org/1999/xlink" xml:space="preserve" overflow="hidden"><defs><clipPath id="clip0"><rect x="2132" y="1173" width="98" height="90"/></clipPath></defs><g clip-path="url(#clip0)" transform="translate(-2132 -1173)"><path d="M2150.14 1196.5 2211.86 1196.5C2219.95 1196.5 2226.5 1208.36 2226.5 1223 2226.5 1237.64 2219.95 1249.5 2211.86 1249.5L2150.14 1249.5C2142.05 1249.5 2135.5 1237.64 2135.5 1223 2135.5 1208.36 2142.05 1196.5 2150.14 1196.5Z" stroke="#042433" stroke-width="6.875" stroke-miterlimit="8" fill="#FFFFFF" fill-rule="evenodd"/><path d="M2150 1224C2150 1219.58 2153.58 1216 2158 1216 2162.42 1216 2166 1219.58 2166 1224 2166 1228.42 2162.42 1232 2158 1232 2153.58 1232 2150 1228.42 2150 1224Z" fill-rule="evenodd"/><path d="M2195 1224C2195 1219.58 2198.58 1216 2203 1216 2207.42 1216 2211 1219.58 2211 1224 2211 1228.42 2207.42 1232 2203 1232 2198.58 1232 2195 1228.42 2195 1224Z" fill-rule="evenodd"/><path d="M2187.89 1223.7C2188.61 1228.05 2185.66 1232.17 2181.3 1232.89 2176.95 1233.61 2172.83 1230.66 2172.11 1226.3 2171.96 1225.43 2171.96 1224.54 2172.11 1223.67Z" fill-rule="evenodd"/><path d="M2171 1182.5C2171 1177.25 2175.25 1173 2180.5 1173 2185.75 1173 2190 1177.25 2190 1182.5 2190 1187.75 2185.75 1192 2180.5 1192 2175.25 1192 2171 1187.75 2171 1182.5Z" fill="#D1D1D1" fill-rule="evenodd"/><path d="M2180.5 1183.5 2180.5 1196.42" stroke="#042433" stroke-width="6.875" stroke-miterlimit="8" fill="#FFFFFF" fill-rule="evenodd"/><path d="M2175 1183C2175 1180.24 2177.24 1178 2180 1178 2182.76 1178 2185 1180.24 2185 1183 2185 1185.76 2182.76 1188 2180 1188 2177.24 1188 2175 1185.76 2175 1183Z" fill-rule="evenodd"/><path d="M0 15.9998 0 0 16.0002 15.9998Z" fill-rule="evenodd" transform="matrix(1 0 0 -1 2156 1263)"/></g></svg>
